X: 7143
T: Christy Campbell
R: strathspey
M: 4/4
K: Amajor
|:"A"{AB}A>GF<D "E"E<F{EF}E>C|"A"A,>f{ef}e>c "E"{Bc}B>AB<c|"A"{AB}A>GF<D "E"E<F{EF}E>C|E>FG<E "A"{E/F/G/}A2 (3ABB|
"A"{AB}A>GF<D "E"E<F{EF}E>C|"A"A,>f{ef}e>c "E"{Bc}B>AB<c|"D"d<f""{ef}e>c "E"{Bc}B>AB<c|"Bm"F<D"E"G<E "A"{E/F/G/}A2 (3ABB:|
"A"{AB}A>Bc>d "E"e>f{ef}e>d|"A"{cd}c>A A/A/A/A/ "D"f>ef<a|"A"[A,2E2] (3AAc "E"e>f{ef}e>c|"Bm"B/B/B/B/ "A"c<A "F#m"F2 "E"(3EFG|
"A"{AB}A>Bc>d "E"e>f{ef}e>d|"A"{cd}c>A A/A/A/A/ "G"=g2 f>g|"A"(3aee (3cee (3aee (3cee|"Bm"(3dcB "A"(3cBA "E"B>a{ga}g>f|
"A"e>dc>d "E"e>f{ef}e>d|"A"{cd}c>A A/A/A/A/ "D"f>ef<a|"A"[A,2E2] (3AAc "E"e>f{ef}e>d|"Bm"B/B/B/B/ "A"c<A "F#m"F2 "E"(3EFG|
"A"{AB}A>Bc>d "E"e>f{ef}e>d|"A"{cd}c>A A/A/A/A/ "G"=g2 f>g|"A"(3aee (3cee (3aee (3cee|"Bm"(3dcB "A"(3cBA "E7"B>d{cd}c>B||

